X:104
T:La Native.2voices. RHu.104
T:Would You Marry a Young Virgin,aka.2voices. RHu.104
S:R.Hughes MS,1823,Whitchurch,Shrops.
A:Whitchurch , Shropshire
Z:Neil Brookes 2006
M:6/8
L:1/8
Q:3/8=120
R:Quadrille
K:D
[V:1]F/G/|A>BA A>BA|d2 AA2 F/G/|A>BA A>BA|eeA AFG|!
[V:2]z|D,F,A, D,F,A,|D,F,A, D,F,A,|C,E,A, C,E,A,|C,E,A, A,zz|!
[V:1]ABA ABA|d2Ae2A|f>ed A>dc|d2D”Fine” D3||!
[V:2]D,F,A, D,F,A,|D,F,A, C,E,A,|D,2F,A,2C,|D,3D,,3||!
[V:1]f>ed f>ed|e2AA3|f>ed f>ed|g2ee3|!
[V:2]D,F,A, D,F,A,|C,E,A, C,E,A,|D,F,A, D,F,A,|C,E,A, C,E,A,|!
[V:1]f>ed f>ed|gfe a2Hg|f>ed A>dc|d2D”D.C.”D3|]
[V:2]D,F,A, D,F,A,|C,E,A,A,2-HA,|D,2F,A,2A,,|D,2D,,D,,3|]

